X: 24601
T: Mabou
R: jig
M: 6/8
K: Cmajor
E|CEG ced|cBA G2f|edc cde|fef d2E|
CEG ced|cBA G2f|ece dBG|c3 c2:|
|:f|edc cde|fef g2f|edc cde|fef d2f|
edc cde|fef g2f|ece dBG|c3 c2:|

